img/mail-icon.svg

<svg width="20" height="18" viewBox="0 0 20 18" fill="none" xmlns="http://www.w3.org/2000/svg">
<path d="M18.0964 1H1.90361C1.40456 1 1 1.40456 1 1.90361V16.2566C1 16.7557 1.40456 17.1602 1.90361 17.1602H18.0964C18.5954 17.1602 19 16.7557 19 16.2566V1.90361C19 1.40456 18.5954 1 18.0964 1Z" stroke="white"/>
<path d="M1.28174 1L10.3757 8.94096L18.7287 1.26024" stroke="white"/>
</svg>

<svg width="20" height="18" fill="none" xmlns="http://www.w3.org/2000/svg"><path d="M18.096 1H1.904c-.5 0-.904.405-.904.904v14.353c0 .499.405.903.904.903h16.192a.904.904 0 00.904-.903V1.904c0-.5-.405-.904-.904-.904z" stroke="#fff"/><path d="M1.282 1l9.094 7.941 8.353-7.68" stroke="#fff"/></svg>
